X: 1
T: Noah's Ark
T: 8x32J 3C (RSCDS Bk 43)
P: Dr. James Hamilton's Reel
C: Robert Mackintosh
C: Originally Ours Vol 1, arr. T. Traub 8-23-2015
M: 6/8
R: jig
K: A
|: E|"A"A3 E2 c|"E"BGE EFG|"A"A2 A "E"BAB|"A"cBc ABc|"D"dcd fdB|"A"cBc ecA|"D"Fdc "E"BAG|"A"A3 A2 :|
e|"A"a3 ecA |"E"BGE Bcd|"A"c2 a agf |"E"ebg "A"aec|"D"dfd "A"cec|"B"BcA "E"GFE|"D"Fdc "E"BAG|"A"A3 A2 g||
"A"aga ecA|"E"BGE Bcd|"A"c2 a agf|"E"ebg "A"aec|"D"dbd "A"cac|"D"BcA "E"GFE|"D"Fdc "E"BAG |"A"A3 A2 |]
